public/svgs/logo-frame-1.svg

<svg width="140" height="62" viewBox="0 0 140 62" fill="none" xmlns="http://www.w3.org/2000/svg">
<path d="M98.4583 18.9287C102.465 18.5104 105.618 20.5949 107.314 23.5613C106.546 24.4414 105.905 25.426 105.414 26.4645C104.507 23.5706 101.967 21.5052 98.7622 21.8399C94.1023 22.3264 90.977 27.3265 91.5856 31.829L91.6097 31.9955C92.1566 35.4752 94.9154 38.0958 98.5305 37.7183H98.5314C101.128 37.4485 103.256 35.7639 104.519 33.5448C104.785 34.7093 105.26 35.7716 105.905 36.692C104.204 38.797 101.789 40.3223 98.8341 40.6294C93.2661 41.2107 89.3352 37.0088 88.685 32.2228C87.907 26.4712 91.7909 19.6247 98.4583 18.9287Z" fill="#090909"/>
<path d="M115.446 20.9378C120.09 20.9378 122.95 24.6717 122.95 28.7313C122.95 33.7499 118.655 39.0944 112.991 39.0944C108.346 39.0944 105.481 35.4148 105.481 31.3251C105.481 26.3003 109.752 20.9318 115.446 20.9318M115.446 18.519C108.153 18.519 103.069 25.2689 103.069 31.3251C103.069 37.3812 107.333 41.5072 112.991 41.5072C120.283 41.5072 125.362 34.7754 125.362 28.7313C125.362 22.6871 121.104 18.525 115.446 18.525V18.519Z" fill="#090909"/>
<path d="M114.216 28.4474C116.037 28.4475 117.594 29.8409 117.594 31.6563C117.594 33.4718 116.037 34.8657 114.216 34.8658C113.131 34.8658 112.139 34.3701 111.515 33.5854C108.666 34.9435 105.41 35.6373 102.191 34.9534H102.19C100.21 34.5304 98.1124 33.4256 97.0977 31.4518L98.3636 30.8009C99.1102 32.2533 100.74 33.1876 102.488 33.5609C105.325 34.1637 108.264 33.5587 110.905 32.2989C110.861 32.0922 110.838 31.8774 110.838 31.6563C110.838 29.8409 112.395 28.4474 114.216 28.4474Z" fill="#090909"/>
<path d="M102.393 26.6856L99.8051 27.4758L99.5576 26.9029L101.916 25.5761L102.393 26.6856Z" fill="#090909"/>
<path d="M112.357 26.6177L112.086 27.245L109.51 26.4307L109.981 25.3208L112.357 26.6177Z" fill="#090909"/>
<path d="M27.1946 25.7466C27.1946 23.9548 25.3213 23.0181 22.8778 23.0181C20.7195 23.0181 18.8869 24.2805 18.8869 25.7466H15.3846C15.3846 22.6109 18.8054 20.0045 22.8778 20.0045C26.6244 20.0045 30.6968 21.6742 30.6968 25.7466V41.5068H27.1946V38.5747C26.095 40.733 23.9774 41.9955 21.4932 41.9955C16.2805 41.9955 14 38.819 14 35.4389C14 31.1629 17.5023 28.9231 21.9005 28.9231H22.8778C25.7285 28.9231 27.1946 27.8235 27.1946 25.7466ZM17.5023 35.4389C17.5023 37.5973 19.0905 38.9819 21.9005 38.9819C24.7919 38.9819 27.1946 37.1493 27.1946 35.0317V30.3891C26.1765 31.3258 24.7511 31.7738 22.8778 31.7738H21.9005C19.0905 31.7738 17.5023 33.2398 17.5023 35.4389Z" fill="#090909"/>
<path d="M33.4632 20.4932H36.9655V22.9774C38.2686 21.1855 40.3048 20.0045 42.6261 20.0045C44.8252 20.0045 47.1872 21.1855 48.4496 23.5882C49.7528 21.4299 51.9926 20.0045 54.6804 20.0045C59.4044 20.0045 61.8885 22.6516 61.8885 27.7828V41.5068H58.3863V27.7828C58.3863 25.1357 57.246 22.8552 53.9474 22.8552C51.2189 22.8552 49.427 24.5249 49.427 27.7828V41.5068H45.9247V27.7828C45.9247 25.1357 44.7845 22.8552 41.4858 22.8552C38.7573 22.8552 36.9655 24.5249 36.9655 27.7828V41.5068H33.4632V20.4932Z" fill="#090909"/>
<path d="M64.6345 41.5068V20.4932H68.1368V41.5068H64.6345ZM63.983 15.1991C63.983 13.9367 65.0418 13 66.3857 13C67.6888 13 68.7477 13.9367 68.7477 15.1991C68.7477 16.4208 67.6888 17.3575 66.3857 17.3575C65.0418 17.3575 63.983 16.4208 63.983 15.1991Z" fill="#090909"/>
<path d="M73.3402 45.9864C75.4172 45.9864 76.3945 44.9683 77.6977 41.5068L69.5529 20.4932H73.3402L79.3674 37.0271L85.5574 20.4932H89.3448L81.2 41.5068C79.0009 47.2896 77.1683 49 73.3402 49V45.9864Z" fill="#090909"/>
</svg>

<svg xmlns="http://www.w3.org/2000/svg" width="140" height="62" fill="none" viewBox="0 0 140 62"><path fill="#090909" d="M98.458 18.929c4.007-.419 7.16 1.666 8.856 4.632a12.7 12.7 0 0 0-1.9 2.904c-.907-2.894-3.447-4.96-6.652-4.625-4.66.486-7.785 5.486-7.176 9.989l.024.166c.547 3.48 3.305 6.1 6.92 5.723h.001c2.597-.27 4.725-1.954 5.988-4.173a8.9 8.9 0 0 0 1.386 3.147c-1.701 2.105-4.116 3.63-7.07 3.937-5.569.582-9.5-3.62-10.15-8.406-.778-5.752 3.106-12.598 9.773-13.294"/><path fill="#090909" d="M115.446 20.938c4.644 0 7.504 3.734 7.504 7.793 0 5.019-4.295 10.363-9.959 10.363-4.645 0-7.51-3.68-7.51-7.769 0-5.025 4.271-10.393 9.965-10.393m0-2.413c-7.293 0-12.377 6.75-12.377 12.806s4.264 10.182 9.922 10.182c7.292 0 12.371-6.732 12.371-12.776s-4.258-10.206-9.916-10.206z"/><path fill="#090909" d="M114.216 28.447c1.821 0 3.378 1.394 3.378 3.21 0 1.815-1.557 3.209-3.378 3.209a3.45 3.45 0 0 1-2.701-1.28c-2.849 1.358-6.105 2.051-9.324 1.367h-.001c-1.98-.423-4.078-1.527-5.092-3.501l1.266-.651c.746 1.452 2.376 2.387 4.124 2.76 2.837.603 5.776-.002 8.417-1.262a3 3 0 0 1-.067-.643c0-1.815 1.557-3.209 3.378-3.209m-11.823-1.761-2.588.79-.247-.573 2.358-1.327zm9.964-.068-.271.627-2.576-.814.471-1.11zm-85.162-.871c0-1.792-1.874-2.729-4.317-2.729-2.158 0-3.991 1.262-3.991 2.729h-3.502c0-3.136 3.42-5.742 7.493-5.742 3.746 0 7.819 1.67 7.819 5.742v15.76h-3.502v-2.932c-1.1 2.158-3.218 3.42-5.702 3.42-5.212 0-7.493-3.176-7.493-6.556 0-4.276 3.502-6.516 7.9-6.516h.978c2.85 0 4.317-1.1 4.317-3.176m-9.693 9.692c0 2.158 1.588 3.543 4.399 3.543 2.89 0 5.294-1.833 5.294-3.95v-4.643c-1.018.937-2.444 1.385-4.317 1.385H21.9c-2.81 0-4.399 1.466-4.399 3.665m15.962-14.946h3.502v2.484c1.304-1.791 3.34-2.972 5.661-2.972 2.2 0 4.561 1.18 5.824 3.583 1.303-2.158 3.543-3.584 6.23-3.584 4.724 0 7.209 2.648 7.209 7.779v13.724h-3.503V27.783c0-2.647-1.14-4.928-4.439-4.928-2.728 0-4.52 1.67-4.52 4.928v13.724h-3.502V27.783c0-2.647-1.14-4.928-4.44-4.928-2.728 0-4.52 1.67-4.52 4.928v13.724h-3.502zm31.172 21.014V20.493h3.502v21.014zm-.652-26.308c0-1.262 1.059-2.199 2.403-2.199 1.303 0 2.362.937 2.362 2.2 0 1.22-1.06 2.158-2.362 2.158-1.344 0-2.403-.937-2.403-2.159m9.357 30.787c2.077 0 3.054-1.018 4.358-4.48l-8.145-21.013h3.787l6.027 16.534 6.19-16.534h3.788L81.2 41.507C79 47.29 77.168 49 73.34 49z"/></svg>
